dist/img/search-btn768.svg

<svg width="82" height="42" viewBox="0 0 82 42" fill="none" xmlns="http://www.w3.org/2000/svg">
<rect width="82" height="42" rx="21" fill="#3670C7"/>
<path d="M45.375 23.5H44.3875L44.0375 23.1625C45.2625 21.7375 46 19.8875 46 17.875C46 13.3875 42.3625 9.75 37.875 9.75C33.3875 9.75 29.75 13.3875 29.75 17.875C29.75 22.3625 33.3875 26 37.875 26C39.8875 26 41.7375 25.2625 43.1625 24.0375L43.5 24.3875V25.375L49.75 31.6125L51.6125 29.75L45.375 23.5ZM37.875 23.5C34.7625 23.5 32.25 20.9875 32.25 17.875C32.25 14.7625 34.7625 12.25 37.875 12.25C40.9875 12.25 43.5 14.7625 43.5 17.875C43.5 20.9875 40.9875 23.5 37.875 23.5Z" fill="white"/>
</svg>

<svg width="82" height="42" fill="none" xmlns="http://www.w3.org/2000/svg"><rect width="82" height="42" rx="21" fill="#3670C7"/><path d="M45.375 23.5h-.987l-.35-.337A8.089 8.089 0 0 0 46 17.875a8.125 8.125 0 0 0-8.125-8.125 8.125 8.125 0 0 0-8.125 8.125A8.125 8.125 0 0 0 37.875 26a8.089 8.089 0 0 0 5.288-1.962l.337.35v.987l6.25 6.238 1.862-1.863-6.237-6.25Zm-7.5 0a5.617 5.617 0 0 1-5.625-5.625 5.617 5.617 0 0 1 5.625-5.625 5.617 5.617 0 0 1 5.625 5.625 5.617 5.617 0 0 1-5.625 5.625Z" fill="#fff"/></svg>
